X:1752
T:Fortune my foe
C:anon., arr. Frank Nordberg
O:England
Z:Transcribed by Frank Nordberg - http://www.musicaviva.com
F:http://abc.musicaviva.com/tunes/england/fortune-my-foe-mc.abc
%Arrangement by Frank Nordberg, based on various solo and
%(incomplete) mixed consort arrangements of the tune.
%Posted at abcusers Oct 17th 2000 by Frank Nordberg in response to
%Jack Campin's posting of the tune and lyrics.
V:1 Program 1 110 %Treble viol (Fiddle)
V:2 Program 2 74 %Recorder
V:3 Program 3 6 %Cittern (Harpsichord)
V:4 Program 4 25 %Bandora (Acoustic Steel Guitar)
V:5 Program 5 24 %Lute (Acoustic Nylon Guitar)
V:6 Program 6 43 bass %Bass viol (Contrabass)
M:none
L:1/8
Q:1/2=48
K:Ddor
V:1
D4 D2 E2 F6 E2 D2 A2 G2 F2 E8||
V:2
A4 A2 A2 A4 A2 A2 A2 A2 c2 A2 A4 A4||
V:3
[F4D4D4A,4] [F2D2D2A,2] [A2E2^C2A,2]|[F4D4D4A,4] [F2D2D2A,2] [E2E2^C2A,2]|[F2D2D2A,2] [A2F2C2] [E2E2C2G,2] [F2D2D2A,2]|[E4E4^C4A,4] [E4E4^C4A,4]||
V:4
[A4F4D4A,4D,4] [A2F2D2] [A2E2A,2]|[A6F6D6A,6D,6] [A2E2A,2]|\
[A2F2D2] F2 [c2E2C2] [d2A2D2]|[^c2E2A,2] A2 A4||
V:5
[D4A,4D,4] [D2A,2D,2] [^C2A,,2]|[D6A,6D,6] [E2A,2A,,2]|\
[F2A,2D,2] F,2 [E2C2C,2] [D2A,2D,2]|[E2^C2A,,2] B,^C [A,4]||
V:6
D,4 D,2 A,,2 D,4 D,2 A,,2 D,2 F,2 C,2 D,2 A,,4 A,,4||
%
V:1
D4 D2 E2 F6 E2 D2 A2 G2 F2 E8||
V:2
A4 A2 A2 A4 A2 A2 A2 A2 c2 A2 A4 A4||
V:3
[F4D4D4A,4] [F2D2D2A,2] [A2E2^C2A,2]|[F4D4D4A,4] [F2D2D2A,2] [E2E2^C2A,2]|\
[F2D2D2A,2] [A2F2C2] [E2E2C2G,2] [F2D2D2A,2]|[E4E4^C4A,4] [E4E4^C4A,4]||
V:4
[A4F4D4A,4D,4] [A2F2D2] [A2E2A,2]|[A6F6D6A,6D,6] [A2E2A,2]|\
[A2F2D2] F2 [c2E2C2] [d2A2D2]|[^c2E2A,2] A2 A4||
V:5
[D3/2A,3/2D,3/2]C/ DE FG [E2A,2^C,2A,,2]|[D6A,6D,6] [E2A,2A,,2]|\
[F3/2A,3/2D,3/2]G/ A3/2_B/ [G3/2C,3/2]A/ [F3/2D,3/2]G/|[E2A,2A,,2] DE ^C4||
V:6
D,4 D,2 A,,2 D,4 D,2 A,,2 D,2 F,2 C,2 D,2 A,,4 A,,4||
%
V:1
A4 A2 A2 A6 A2 A2 c2 B2 A2 G8|
V:2
f4 f2 F2 A2 F2 F4 FEFG FGAB c4 c4|
V:3
[A4F4C4] [A2F2C2] [A2F2C2]|[A4F4C4] [A4F4C4]|[A4F4C4] [A4F4C4]|\
[E4E4C4G,4] [E2E2C2G,2] [E2E2C2G,2]|
V:4
[A4F4F,4] F,2 [A2F2F,2]|[A6F6F,6] F2|[F2C2F,2] A2 G2 F2|[E8C8C,8]|
V:5
[A3F3C3F,3] D/E/ F/E/F/E/ F/E/D/E/|F2 C2 F,2 [A2F2C2]|\
[A2F2C2F,2] c2 B2 A2|[G2E2C2] C,2 [G4E4C4]|
V:6
F,,4 F,,2 F,,2 F,,4 F,,4 F,4 F,4 C,4 C,4|
%
V:1
G4 c2 _B2 A6 GF E2 D4 ^C2 D8||
V:2
c4 G4 d3c/_B/ A2 F2 GA _B2 A3G ^F4 ^F4||
V:3
[E4E4C4G,4] [E4E4C4G,4]|[F4D4D4A,4] [F2D2D2A,2] [F2D2D2A,2]|\
[G2D2G,2] [G,2] [E2E2^C2A,2] [G2]|[^F4D4A,4] [^F4D4A,4]||
V:4
[G4E4C4] A2 G2|[F3D3D,3] G A2 F2|[G2D2G,2] _B2 [A4E4A,4]|\
[A8^F8D8A,8D,8]||
V:5
[E3C3G,3C,3]G c3_B|[A3D3A,3D,3] G F2 A2|\
[_B3/2D3/2G,,3/2]A/ GF [EA,A,,]D E2|[D2A,2D,2] ^F,2 D,4||
V:6
C,4 C,4 D,4 D,4 G,,4 A,,4 D,4 D,4||
%
V:1
A4 A2 A2 A6 A2 A2 c2 B2 A2 G8|
V:2
f4 f2 F2 A2 F2 F4 FEFG FGAB c4 c4|
V:3
[A4F4C4] [A2F2C2] [A2F2C2]|[A4F4C4] [A4F4C4]|\
[A4F4C4] [A4F4C4]|[E4E4C4G,4] [E2E2C2G,2] [E2E2C2G,2]|
V:4
[A4F4F,4] F,2 [A2F2F,2]|[A6F6F,6] F2|[F2C2F,2] A2 G2 F2|[E8C8C,8]|
V:5
[A3F3C3F,3] C DEFG|[A2F2] C2 F,2 [A2F2]|\
[A2F2C2F,2] c2 Bc [A2F2]|[G2E2C2] C,2 [G4E4C4]|
V:6
F,,4 F,,2 F,,2 F,,4 F,,4 F,4 F,4 C,4 C,4|
%
V:1
G4 c2 _B2 A6 GF E2 D4 ^C2 D8|]
V:2
c4 G4 d3c/_B/ A2 F2 GA _B2 A3G ^F4 ^F4|]
V:3
[E4E4C4G,4] [E4E4C4G,4]|[F4D4D4A,4] [F2D2D2A,2] [F2D2D2A,2]|\
[G2D2G,2] [G,2] [E2E2^C2A,2] [G2]|[^F4D4A,4] [^F4D4A,4]|]
V:4
[G4E4C4] A2 G2|[F3D3D,3] G A2 F2|[G2D2G,2] _B2 [A4E4A,4]|\
[A8^F8D8A,8D,8]|]
V:5
[cGEC,]d[_BG]c [AF]B[GE]A|[F3/2A,3/2D,3/2]G/ [EA,]F [D2A,2D,2] A2|\
[_BDG,,]AGF [EA,A,,]D [E2A,2]|D,D^F,D, [D4A,4^F,4D,4]|]
V:6
C,4 C,4 D,4 D,4 G,,4 A,,4 D,4 D,4|]
W:
W:
W:  From Musica Viva - http://www.musicaviva.com
W:  the Internet center for free sheet music downloads.
